X:37
T:Ymgyrchdon y Waunlwyd - The Waunlwyd Warcry
M:2/4
L:1/8
Q:180
C:Trad.
R:Processional
K:D
AB/2c/2 | dA FA | GE EG | FD AF | FE AB/2c/2 | dA FA | GE EG | FD
E/2D/2C |1 D2 :||2 D4 ||: CE E>E | GF F2 | DF F>F
| AF FA | BB/2c/2 dB | AA FA | GE DC |1 D4 :||2 D2 ||
